public/csharp.svg

<!DOCTYPE svg PUBLIC "-//W3C//DTD SVG 1.1//EN" "http://www.w3.org/Graphics/SVG/1.1/DTD/svg11.dtd">
<!-- Uploaded to: SVG Repo, www.svgrepo.com, Transformed by: SVG Repo Mixer Tools -->
<svg width="256px" height="256px" viewBox="0 0 32 32" fill="none" xmlns="http://www.w3.org/2000/svg">
<g id="SVGRepo_bgCarrier" stroke-width="0"/>
<g id="SVGRepo_tracerCarrier" stroke-linecap="round" stroke-linejoin="round"/>
<g id="SVGRepo_iconCarrier"> <path d="M27.6947 22.9999C27.883 22.6617 28 22.2807 28 21.9385V10.0613C28 9.71913 27.8831 9.33818 27.6947 9L16 16L27.6947 22.9999Z" fill="#7F3A86"/> <path d="M17.0395 29.7433L26.9611 23.8047C27.2469 23.6336 27.5067 23.3382 27.695 23L16.0003 16L4.30566 23C4.49398 23.3382 4.75382 23.6337 5.03955 23.8047L14.9611 29.7433C15.5326 30.0855 16.468 30.0855 17.0395 29.7433Z" fill="#662579"/> <path d="M27.6947 8.99996C27.5064 8.6617 27.2465 8.36629 26.9608 8.19521L17.0392 2.25662C16.4677 1.91446 15.5323 1.91446 14.9608 2.25662L5.03922 8.19521C4.46761 8.53729 4 9.37709 4 10.0613V21.9386C4 22.2807 4.11694 22.6618 4.30533 23L16 16L27.6947 8.99996Z" fill="#9A5196"/> <path d="M16.0385 24C11.6061 24 8 20.4112 8 16C8 11.5888 11.6061 8 16.0385 8C18.8458 8 21.4674 9.47569 22.919 11.8618L19.4765 13.9265C18.7492 12.736 17.4399 12 16.0385 12C13.8222 12 12.0193 13.7944 12.0193 16C12.0193 18.2056 13.8222 20 16.0385 20C17.4362 20 18.7421 19.2681 19.4707 18.0832L22.9205 20.1359C21.4692 22.5234 18.8467 24 16.0385 24Z" fill="white"/> <path fill-rule="evenodd" clip-rule="evenodd" d="M25.0001 13V13.9974H22.9999V13H22.0001V13.9974H21V15H22.0001V16.9948H21V18H22.0001V19H22.9999L23 18H25.0001V19H25.9999V18H27V17H25.9999V15H27V13.9974H25.9999V13H25.0001ZM25.0001 17V15H22.9999V16.9948L25.0001 17Z" fill="white"/> </g>
</svg>

<svg xmlns="http://www.w3.org/2000/svg" width="256" height="256" fill="none" viewBox="0 0 32 32"><path fill="#7F3A86" d="M27.695 23c.188-.338.305-.72.305-1.061V10.06c0-.342-.117-.723-.305-1.061L16 16l11.695 7Z"/><path fill="#662579" d="m17.04 29.743 9.921-5.938c.286-.171.546-.467.734-.805L16 16 4.306 23c.188.338.448.634.734.805l9.921 5.938c.572.343 1.507.343 2.079 0Z"/><path fill="#9A5196" d="M27.695 9c-.189-.338-.448-.634-.734-.805l-9.922-5.938c-.571-.343-1.507-.343-2.078 0L5.039 8.195C4.468 8.537 4 9.377 4 10.061V21.94c0 .342.117.723.305 1.061L16 16l11.695-7Z"/><path fill="#fff" d="M16.038 24C11.606 24 8 20.411 8 16s3.606-8 8.038-8a8.076 8.076 0 0 1 6.881 3.862l-3.442 2.065A4.04 4.04 0 0 0 16.038 12c-2.216 0-4.019 1.794-4.019 4s1.803 4 4.02 4a4.04 4.04 0 0 0 3.432-1.917l3.45 2.053A8.076 8.076 0 0 1 16.038 24Z"/><path fill="#fff" fill-rule="evenodd" d="M25 13v.997h-2V13h-1v.997h-1V15h1v1.995h-1V18h1v1h1v-1h2v1h1v-1h1v-1h-1v-2h1v-1.003h-1V13h-1Zm0 4v-2h-2v1.995L25 17Z" clip-rule="evenodd"/></svg>
